packages/core/src/Assets/SvgComponents/settings/interval-enabled.svg

<?xml version="1.0" encoding="UTF-8"?>
<svg width="160px" height="120px" viewBox="0 0 160 120" version="1.1" xmlns="http://www.w3.org/2000/svg" xmlns:xlink="http://www.w3.org/1999/xlink">
    <!-- Generator: Sketch 55.2 (78181) - https://sketchapp.com -->
    <title>Group</title>
    <desc>Created with Sketch.</desc>
    <defs>
        <linearGradient x1="50%" y1="126.023094%" x2="50%" y2="32.9067953%" id="linearGradient-1">
            <stop stop-color="#FFFFFF" stop-opacity="0" offset="0%"></stop>
            <stop stop-color="#85ACB0" stop-opacity="0.16" offset="100%"></stop>
        </linearGradient>
    </defs>
    <g id="Symbols" stroke="none" stroke-width="1" fill="none" fill-rule="evenodd">
        <g id="images/img-charts-with-countdown-scale">
            <g id="Group">
                <rect id="bg-all" fill="#F2F3F4" fill-rule="nonzero" x="0" y="0" width="160" height="120"></rect>
                <polygon id="chart-bg" fill="url(#linearGradient-1)" points="95.9975186 34.453144 86.5 34.3877992 81.5 60.6560838 79.5 40.9548704 54.5 34.3877992 52.5 16 29.5 34.3877992 25.5 54.0890127 22.5 16 13.5 73.7902261 -5.82645043e-13 73.7902261 3.63797881e-12 119.103017 96 120"></polygon>
                <path d="M96,34.0767664 C95.9744391,34.4118839 95.7593499,34.6670853 95.5024665,34.6670853 L86.9257737,34.6670853 L81.9952597,60.3412469 C81.9008675,61.0837685 81.082303,61.0662756 81.0064192,60.3201151 L79.0247266,40.8342642 L54.1111833,34.4210548 C54.0553737,34.3295927 54.0192743,34.2201969 54.0066399,34.1042454 L52.1138188,16.7330614 L29.932301,34.4346921 L25.9838943,53.8469011 C25.8408201,54.5503207 25.0605392,54.4695823 25.0034016,53.7454462 L22.3382508,19.968503 L13.9902757,73.4758141 C13.9426762,73.7809089 13.7379307,74 13.5004036,74 L3.56692453e-12,74 L3.56692453e-12,72.6888962 L13.0923116,72.6888962 L22.0108006,15.5248105 C22.1254462,14.7899762 22.9391654,14.8426568 22.9980335,15.5887245 L25.7183046,50.0642393 L29.0177501,33.8426265 C29.0509385,33.6794568 29.1308751,33.5393727 29.2409007,33.4515683 L52.2415884,15.0962114 C52.5482187,14.8515096 52.9457933,15.0975731 52.9965592,15.5634714 L54.9773207,33.7417208 L79.8924343,40.1575036 C79.9492347,40.2505895 79.9855999,40.3622194 79.9976169,40.4803818 L81.5569981,55.8136726 L86.0089857,33.9037654 C86.0491693,33.5876678 86.2577706,33.3559884 86.5021975,33.3559884 C91.75802,33.3223935 94.607274,33.3223935 95.0499592,33.3559884 C95.4926445,33.3895833 95.8093248,33.6298427 96,34.0767664 Z" id="chart-line" fill="#85ACB0" fill-rule="nonzero"></path>
                <path d="M115.279851,33.6666667 L121.716418,26 L160,26 L160,42 L121.716418,42 L115.279851,34.3333333 L113,34.3333333 L113,33.6666667 L115.279851,33.6666667 Z M98.8612798,33.6666667 L99.6666667,33.6666667 L99.6666667,34.3333333 L98.9989098,34.3333333 C98.9996347,34.3554665 99,34.3776906 99,34.4 C99,35.5045695 98.1045695,36.4 97,36.4 C95.8954305,36.4 95,35.5045695 95,34.4 C95,33.2954305 95.8954305,32.4 97,32.4 C97.8456922,32.4 98.5687892,32.9248926 98.8612798,33.6666667 Z M102.333333,34.3333333 L102.333333,33.6666667 L105,33.6666667 L105,34.3333333 L102.333333,34.3333333 Z M107.666667,34.3333333 L107.666667,33.6666667 L110.333334,33.6666667 L110.333334,34.3333333 L107.666667,34.3333333 Z" id="current-spot" fill="#FF444F" fill-rule="nonzero"></path>
                <polygon id="bg" fill="#000000" fill-rule="nonzero" points="115 42 160 42 160 58 115 58"></polygon>
                <path d="M121.102564,53.6923077 C123.085125,53.6923077 124.692308,52.0851247 124.692308,50.1025641 C124.692308,48.1200035 123.085125,46.5128205 121.102564,46.5128205 C119.120003,46.5128205 117.512821,48.1200035 117.512821,50.1025641 C117.512821,52.0851247 119.120003,53.6923077 121.102564,53.6923077 Z M121.102564,54.2051282 C118.836781,54.2051282 117,52.3683477 117,50.1025641 C117,47.8367805 118.836781,46 121.102564,46 C123.368348,46 125.205128,47.8367805 125.205128,50.1025641 C125.205128,52.3683477 123.368348,54.2051282 121.102564,54.2051282 Z M122.565925,51.203306 C122.666059,51.3034404 122.666059,51.4657904 122.565925,51.5659248 C122.46579,51.6660592 122.30344,51.6660592 122.203306,51.5659248 L120.921255,50.2838735 C120.873168,50.2357873 120.846154,50.1705683 120.846154,50.1025641 L120.846154,47.7948718 C120.846154,47.6532603 120.960953,47.5384615 121.102564,47.5384615 C121.244176,47.5384615 121.358974,47.6532603 121.358974,47.7948718 L121.358974,49.9963555 L122.565925,51.203306 Z M131.039063,50.5742188 C131.039063,51.4205771 130.894533,52.0494771 130.605469,52.4609375 C130.316405,52.8723979 129.864586,53.078125 129.25,53.078125 C128.643226,53.078125 128.194012,52.8769551 127.902344,52.4746094 C127.610676,52.0722636 127.459635,51.4713582 127.449219,50.671875 L127.449219,49.7070312 C127.449219,48.8710896 127.593749,48.250002 127.882813,47.84375 C128.171876,47.437498 128.624997,47.234375 129.242188,47.234375 C129.85417,47.234375 130.304686,47.4303366 130.59375,47.8222656 C130.882814,48.2141947 131.03125,48.8190063 131.039063,49.6367188 L131.039063,50.5742188 Z M130.316406,49.5859375 C130.316406,48.9739553 130.23047,48.5279962 130.058594,48.2480469 C129.886718,47.9680976 129.614585,47.828125 129.242188,47.828125 C128.872394,47.828125 128.602865,47.9674465 128.433594,48.2460938 C128.264322,48.524741 128.177083,48.9531221 128.171875,49.53125 L128.171875,50.6875 C128.171875,51.3020864 128.261067,51.7558579 128.439453,52.0488281 C128.617839,52.3417983 128.888019,52.4882812 129.25,52.4882812 C129.606773,52.4882812 129.871744,52.3502618 130.044922,52.0742188 C130.2181,51.7981757 130.308594,51.3632842 130.316406,50.7695312 L130.316406,49.5859375 Z M135.53125,50.5742188 C135.53125,51.4205771 135.38672,52.0494771 135.097656,52.4609375 C134.808592,52.8723979 134.356774,53.078125 133.742188,53.078125 C133.135414,53.078125 132.686199,52.8769551 132.394531,52.4746094 C132.102863,52.0722636 131.951823,51.4713582 131.941406,50.671875 L131.941406,49.7070312 C131.941406,48.8710896 132.085936,48.250002 132.375,47.84375 C132.664064,47.437498 133.117184,47.234375 133.734375,47.234375 C134.346357,47.234375 134.796874,47.4303366 135.085938,47.8222656 C135.375001,48.2141947 135.523437,48.8190063 135.53125,49.6367188 L135.53125,50.5742188 Z M134.808594,49.5859375 C134.808594,48.9739553 134.722657,48.5279962 134.550781,48.2480469 C134.378905,47.9680976 134.106773,47.828125 133.734375,47.828125 C133.364581,47.828125 133.095053,47.9674465 132.925781,48.2460938 C132.75651,48.524741 132.669271,48.9531221 132.664063,49.53125 L132.664063,50.6875 C132.664063,51.3020864 132.753254,51.7558579 132.931641,52.0488281 C133.110027,52.3417983 133.380207,52.4882812 133.742188,52.4882812 C134.09896,52.4882812 134.363931,52.3502618 134.537109,52.0742188 C134.710287,51.7981757 134.800781,51.3632842 134.808594,50.7695312 L134.808594,49.5859375 Z M136.507813,52.6210938 C136.507813,52.4960931 136.544922,52.3919275 136.619141,52.3085938 C136.69336,52.22526 136.804687,52.1835938 136.953125,52.1835938 C137.101563,52.1835938 137.214192,52.22526 137.291016,52.3085938 C137.367839,52.3919275 137.40625,52.4960931 137.40625,52.6210938 C137.40625,52.740886 137.367839,52.8411454 137.291016,52.921875 C137.214192,53.0026046 137.101563,53.0429688 136.953125,53.0429688 C136.804687,53.0429688 136.69336,53.0026046 136.619141,52.921875 C136.544922,52.8411454 136.507813,52.740886 136.507813,52.6210938 Z M136.511719,49.171875 C136.511719,49.0468744 136.548828,48.9427088 136.623047,48.859375 C136.697266,48.7760412 136.808593,48.734375 136.957031,48.734375 C137.105469,48.734375 137.218099,48.7760412 137.294922,48.859375 C137.371745,48.9427088 137.410156,49.0468744 137.410156,49.171875 C137.410156,49.2916673 137.371745,49.3919267 137.294922,49.4726562 C137.218099,49.5533858 137.105469,49.59375 136.957031,49.59375 C136.808593,49.59375 136.697266,49.5533858 136.623047,49.4726562 C136.548828,49.3919267 136.511719,49.2916673 136.511719,49.171875 Z M141.960938,50.5742188 C141.960938,51.4205771 141.816408,52.0494771 141.527344,52.4609375 C141.23828,52.8723979 140.786461,53.078125 140.171875,53.078125 C139.565101,53.078125 139.115887,52.8769551 138.824219,52.4746094 C138.532551,52.0722636 138.38151,51.4713582 138.371094,50.671875 L138.371094,49.7070312 C138.371094,48.8710896 138.515624,48.250002 138.804688,47.84375 C139.093751,47.437498 139.546872,47.234375 140.164063,47.234375 C140.776045,47.234375 141.226561,47.4303366 141.515625,47.8222656 C141.804689,48.2141947 141.953125,48.8190063 141.960938,49.6367188 L141.960938,50.5742188 Z M141.238281,49.5859375 C141.238281,48.9739553 141.152345,48.5279962 140.980469,48.2480469 C140.808593,47.9680976 140.53646,47.828125 140.164063,47.828125 C139.794269,47.828125 139.52474,47.9674465 139.355469,48.2460938 C139.186197,48.524741 139.098958,48.9531221 139.09375,49.53125 L139.09375,50.6875 C139.09375,51.3020864 139.182942,51.7558579 139.361328,52.0488281 C139.539714,52.3417983 139.809894,52.4882812 140.171875,52.4882812 C140.528648,52.4882812 140.793619,52.3502618 140.966797,52.0742188 C141.139975,51.7981757 141.230469,51.3632842 141.238281,50.7695312 L141.238281,49.5859375 Z M146.453125,50.5742188 C146.453125,51.4205771 146.308595,52.0494771 146.019531,52.4609375 C145.730467,52.8723979 145.278649,53.078125 144.664063,53.078125 C144.057289,53.078125 143.608074,52.8769551 143.316406,52.4746094 C143.024738,52.0722636 142.873698,51.4713582 142.863281,50.671875 L142.863281,49.7070312 C142.863281,48.8710896 143.007811,48.250002 143.296875,47.84375 C143.585939,47.437498 144.039059,47.234375 144.65625,47.234375 C145.268232,47.234375 145.718749,47.4303366 146.007813,47.8222656 C146.296876,48.2141947 146.445312,48.8190063 146.453125,49.6367188 L146.453125,50.5742188 Z M145.730469,49.5859375 C145.730469,48.9739553 145.644532,48.5279962 145.472656,48.2480469 C145.30078,47.9680976 145.028648,47.828125 144.65625,47.828125 C144.286456,47.828125 144.016928,47.9674465 143.847656,48.2460938 C143.678385,48.524741 143.591146,48.9531221 143.585938,49.53125 L143.585938,50.6875 C143.585938,51.3020864 143.675129,51.7558579 143.853516,52.0488281 C144.031902,52.3417983 144.302082,52.4882812 144.664063,52.4882812 C145.020835,52.4882812 145.285806,52.3502618 145.458984,52.0742188 C145.632162,51.7981757 145.722656,51.3632842 145.730469,50.7695312 L145.730469,49.5859375 Z M147.429688,52.6210938 C147.429688,52.4960931 147.466797,52.3919275 147.541016,52.3085938 C147.615235,52.22526 147.726562,52.1835938 147.875,52.1835938 C148.023438,52.1835938 148.136067,52.22526 148.212891,52.3085938 C148.289714,52.3919275 148.328125,52.4960931 148.328125,52.6210938 C148.328125,52.740886 148.289714,52.8411454 148.212891,52.921875 C148.136067,53.0026046 148.023438,53.0429688 147.875,53.0429688 C147.726562,53.0429688 147.615235,53.0026046 147.541016,52.921875 C147.466797,52.8411454 147.429688,52.740886 147.429688,52.6210938 Z M147.433594,49.171875 C147.433594,49.0468744 147.470703,48.9427088 147.544922,48.859375 C147.619141,48.7760412 147.730468,48.734375 147.878906,48.734375 C148.027344,48.734375 148.139974,48.7760412 148.216797,48.859375 C148.29362,48.9427088 148.332031,49.0468744 148.332031,49.171875 C148.332031,49.2916673 148.29362,49.3919267 148.216797,49.4726562 C148.139974,49.5533858 148.027344,49.59375 147.878906,49.59375 C147.730468,49.59375 147.619141,49.5533858 147.544922,49.4726562 C147.470703,49.3919267 147.433594,49.2916673 147.433594,49.171875 Z M152.882813,50.5742188 C152.882813,51.4205771 152.738283,52.0494771 152.449219,52.4609375 C152.160155,52.8723979 151.708336,53.078125 151.09375,53.078125 C150.486976,53.078125 150.037762,52.8769551 149.746094,52.4746094 C149.454426,52.0722636 149.303385,51.4713582 149.292969,50.671875 L149.292969,49.7070312 C149.292969,48.8710896 149.437499,48.250002 149.726563,47.84375 C150.015626,47.437498 150.468747,47.234375 151.085938,47.234375 C151.69792,47.234375 152.148436,47.4303366 152.4375,47.8222656 C152.726564,48.2141947 152.875,48.8190063 152.882813,49.6367188 L152.882813,50.5742188 Z M152.160156,49.5859375 C152.160156,48.9739553 152.07422,48.5279962 151.902344,48.2480469 C151.730468,47.9680976 151.458335,47.828125 151.085938,47.828125 C150.716144,47.828125 150.446615,47.9674465 150.277344,48.2460938 C150.108072,48.524741 150.020833,48.9531221 150.015625,49.53125 L150.015625,50.6875 C150.015625,51.3020864 150.104817,51.7558579 150.283203,52.0488281 C150.461589,52.3417983 150.731769,52.4882812 151.09375,52.4882812 C151.450523,52.4882812 151.715494,52.3502618 151.888672,52.0742188 C152.06185,51.7981757 152.152344,51.3632842 152.160156,50.7695312 L152.160156,49.5859375 Z M157.375,50.5742188 C157.375,51.4205771 157.23047,52.0494771 156.941406,52.4609375 C156.652342,52.8723979 156.200524,53.078125 155.585938,53.078125 C154.979164,53.078125 154.529949,52.8769551 154.238281,52.4746094 C153.946613,52.0722636 153.795573,51.4713582 153.785156,50.671875 L153.785156,49.7070312 C153.785156,48.8710896 153.929686,48.250002 154.21875,47.84375 C154.507814,47.437498 154.960934,47.234375 155.578125,47.234375 C156.190107,47.234375 156.640624,47.4303366 156.929688,47.8222656 C157.218751,48.2141947 157.367187,48.8190063 157.375,49.6367188 L157.375,50.5742188 Z M156.652344,49.5859375 C156.652344,48.9739553 156.566407,48.5279962 156.394531,48.2480469 C156.222655,47.9680976 155.950523,47.828125 155.578125,47.828125 C155.208331,47.828125 154.938803,47.9674465 154.769531,48.2460938 C154.60026,48.524741 154.513021,48.9531221 154.507813,49.53125 L154.507813,50.6875 C154.507813,51.3020864 154.597004,51.7558579 154.775391,52.0488281 C154.953777,52.3417983 155.223957,52.4882812 155.585938,52.4882812 C155.94271,52.4882812 156.207681,52.3502618 156.380859,52.0742188 C156.554037,51.7981757 156.644531,51.3632842 156.652344,50.7695312 L156.652344,49.5859375 Z" id="countdown" fill="#FFFFFF" fill-rule="nonzero"></path>
            </g>
        </g>
    </g>
</svg>

<svg width="160" height="120" xmlns="http://www.w3.org/2000/svg"><defs><linearGradient x1="50%" y1="126.023%" x2="50%" y2="32.907%" id="a"><stop stop-color="#FFF" stop-opacity="0" offset="0%"/><stop stop-color="#85ACB0" stop-opacity=".16" offset="100%"/></linearGradient></defs><g fill="none" fill-rule="evenodd"><path fill="#F2F3F4" fill-rule="nonzero" d="M0 0h160v120H0z"/><path fill="url(#a)" d="m95.998 34.453-9.498-.065-5 26.268-2-19.701-25-6.567L52.5 16l-23 18.388-4 19.701L22.5 16l-9 57.79H0v45.313L96 120z"/><path d="M96 34.077c-.026.335-.24.59-.498.59h-8.576l-4.93 25.674c-.095.743-.914.725-.99-.02l-1.981-19.487-24.914-6.413a.771.771 0 0 1-.104-.317l-1.893-17.37-22.182 17.7-3.948 19.413c-.143.703-.923.623-.98-.102L22.337 19.97 13.99 73.476c-.047.305-.252.524-.49.524H0v-1.311h13.092l8.919-57.164c.114-.735.928-.682.987.064l2.72 34.475 3.3-16.221a.667.667 0 0 1 .223-.391l23-18.356c.307-.244.705.002.756.467l1.98 18.179 24.915 6.416a.773.773 0 0 1 .106.322l1.559 15.334 4.452-21.91c.04-.316.249-.548.493-.548 5.256-.034 8.105-.034 8.548 0 .443.034.76.274.95.72Z" fill="#85ACB0" fill-rule="nonzero"/><path d="M115.28 33.667 121.716 26H160v16h-38.284l-6.436-7.667H113v-.666h2.28Zm-16.419 0h.806v.666h-.668L99 34.4a2 2 0 1 1-.139-.733Zm3.472.666v-.666H105v.666h-2.667Zm5.334 0v-.666h2.666v.666h-2.666Z" fill="#FF444F" fill-rule="nonzero"/><path fill="#000" fill-rule="nonzero" d="M115 42h45v16h-45z"/><path d="M121.103 53.692a3.59 3.59 0 1 0 0-7.18 3.59 3.59 0 0 0 0 7.18Zm0 .513a4.103 4.103 0 1 1 0-8.205 4.103 4.103 0 0 1 0 8.205Zm1.463-3.002a.256.256 0 0 1-.363.363l-1.282-1.282a.256.256 0 0 1-.075-.181v-2.308a.256.256 0 0 1 .513 0v2.201l1.207 1.207Zm8.473-.629c0 .847-.144 1.475-.434 1.887-.289.411-.74.617-1.355.617-.607 0-1.056-.201-1.348-.603-.291-.403-.442-1.004-.453-1.803v-.965c0-.836.145-1.457.434-1.863.289-.407.742-.61 1.36-.61.611 0 1.062.196 1.35.588.29.392.438.997.446 1.815v.937Zm-.723-.988c0-.612-.086-1.058-.257-1.338-.172-.28-.444-.42-.817-.42-.37 0-.64.14-.808.418-.17.279-.257.707-.262 1.285v1.157c0 .614.09 1.068.267 1.36.179.294.449.44.811.44.357 0 .622-.138.795-.414.173-.276.264-.71.271-1.304v-1.184Zm5.215.988c0 .847-.144 1.475-.433 1.887-.29.411-.741.617-1.356.617-.607 0-1.056-.201-1.347-.603-.292-.403-.443-1.004-.454-1.803v-.965c0-.836.145-1.457.434-1.863.29-.407.742-.61 1.36-.61.611 0 1.062.196 1.35.588.29.392.438.997.446 1.815v.937Zm-.722-.988c0-.612-.086-1.058-.258-1.338-.172-.28-.444-.42-.817-.42-.37 0-.639.14-.808.418-.17.279-.257.707-.262 1.285v1.157c0 .614.09 1.068.268 1.36.178.294.448.44.81.44.357 0 .622-.138.795-.414.173-.276.264-.71.272-1.304v-1.184Zm1.699 3.035c0-.125.037-.23.111-.312.074-.084.186-.125.334-.125.149 0 .261.041.338.125a.443.443 0 0 1 .115.312.42.42 0 0 1-.115.3c-.077.082-.19.122-.338.122-.148 0-.26-.04-.334-.121a.428.428 0 0 1-.111-.3Zm.004-3.45c0-.124.037-.228.111-.312.074-.083.186-.125.334-.125.148 0 .261.042.338.125a.443.443 0 0 1 .115.313.42.42 0 0 1-.115.3c-.077.081-.19.122-.338.122-.148 0-.26-.04-.334-.121a.428.428 0 0 1-.111-.301Zm5.449 1.403c0 .847-.145 1.475-.434 1.887-.289.411-.74.617-1.355.617-.607 0-1.056-.201-1.348-.603-.291-.403-.442-1.004-.453-1.803v-.965c0-.836.145-1.457.434-1.863.289-.407.742-.61 1.36-.61.611 0 1.062.196 1.35.588.29.392.438.997.446 1.815v.937Zm-.723-.988c0-.612-.086-1.058-.258-1.338-.171-.28-.444-.42-.816-.42-.37 0-.64.14-.809.418-.169.279-.256.707-.261 1.285v1.157c0 .614.089 1.068.267 1.36.179.294.449.44.81.44.358 0 .623-.138.796-.414.173-.276.263-.71.271-1.304v-1.184Zm5.215.988c0 .847-.144 1.475-.433 1.887-.29.411-.741.617-1.356.617-.607 0-1.056-.201-1.348-.603-.291-.403-.442-1.004-.453-1.803v-.965c0-.836.145-1.457.434-1.863.289-.407.742-.61 1.36-.61.611 0 1.062.196 1.35.588.29.392.438.997.446 1.815v.937Zm-.723-.988c0-.612-.085-1.058-.257-1.338s-.444-.42-.817-.42c-.37 0-.64.14-.808.418-.17.279-.257.707-.262 1.285v1.157c0 .614.09 1.068.268 1.36.178.294.448.44.81.44.357 0 .622-.138.795-.414.173-.276.264-.71.271-1.304v-1.184Zm1.7 3.035c0-.125.037-.23.111-.312.074-.084.186-.125.334-.125.148 0 .261.041.338.125a.443.443 0 0 1 .115.312.42.42 0 0 1-.115.3c-.077.082-.19.122-.338.122-.148 0-.26-.04-.334-.121a.428.428 0 0 1-.111-.3Zm.004-3.45c0-.124.037-.228.11-.312.075-.083.186-.125.335-.125.148 0 .261.042.338.125a.443.443 0 0 1 .115.313.42.42 0 0 1-.115.3c-.077.081-.19.122-.338.122-.149 0-.26-.04-.334-.121a.428.428 0 0 1-.111-.301Zm5.449 1.403c0 .847-.145 1.475-.434 1.887-.289.411-.74.617-1.355.617-.607 0-1.056-.201-1.348-.603-.292-.403-.443-1.004-.453-1.803v-.965c0-.836.144-1.457.434-1.863.289-.407.742-.61 1.359-.61.612 0 1.062.196 1.351.588.29.392.438.997.446 1.815v.937Zm-.723-.988c0-.612-.086-1.058-.258-1.338-.172-.28-.444-.42-.816-.42-.37 0-.64.14-.809.418-.169.279-.256.707-.261 1.285v1.157c0 .614.089 1.068.267 1.36.179.294.449.44.81.44.358 0 .622-.138.796-.414.173-.276.263-.71.271-1.304v-1.184Zm5.215.988c0 .847-.145 1.475-.434 1.887-.289.411-.74.617-1.355.617-.607 0-1.056-.201-1.348-.603-.291-.403-.442-1.004-.453-1.803v-.965c0-.836.145-1.457.434-1.863.289-.407.742-.61 1.36-.61.611 0 1.062.196 1.35.588.29.392.438.997.446 1.815v.937Zm-.723-.988c0-.612-.086-1.058-.257-1.338-.172-.28-.444-.42-.817-.42-.37 0-.64.14-.808.418-.17.279-.257.707-.262 1.285v1.157c0 .614.089 1.068.267 1.36.179.294.449.44.81.44.358 0 .623-.138.796-.414.173-.276.264-.71.271-1.304v-1.184Z" fill="#FFF" fill-rule="nonzero"/></g></svg>
